packages/icons/assets/MultipleFolder.svg

<svg xmlns="http://www.w3.org/2000/svg" viewBox="0 0 18 16"><g fill="#414141"><path d="M16.839844 14.851562V3.453125H8.539062l-2.246093-2.28125H1.128906v13.675781h15.703125m1.125 1.140625H.015625V.03125h6.730469L8.992188 2.3125h8.972656Zm0 0"/><path d="m12.769531 9.046875-.832031.464844 1.433594.921875-4.378906 2.683594-4.378907-2.683594 1.433594-.921875-.828125-.464844-2.265625 1.386719 4.230469 2.589844 1.8125 1.109374 1.289062-.738281 4.757813-2.960937Zm0 0"/><path d="M13.3125 7.789062 9.007812 5.367188 4.699219 7.789062l4.308593 2.417969L13.3125 7.789062m1.703125 0L9.007812 11.15625 3 7.792969l6.007812-3.367188Zm0 0"/></g></svg>

<svg xmlns="http://www.w3.org/2000/svg" viewBox="0 0 18 16"><g fill="#414141"><path d="M16.84 14.85V3.45h-8.3L6.29 1.17H1.13v13.68h15.7m1.13 1.14H.02V.03h6.73l2.24 2.28h8.97Zm0 0"/><path d="m12.77 9.05-.83.46 1.43.92L9 13.12l-4.38-2.69 1.44-.92-.83-.46-2.27 1.38 4.23 2.6L9 14.12l1.29-.74 4.75-2.96Zm0 0"/><path d="m13.31 7.79-4.3-2.42L4.7 7.79 9 10.2l4.31-2.42m1.7 0-6 3.37L3 7.79l6-3.36Zm0 0"/></g></svg>
